svg/s/JM.svg

<svg width="16" height="12" viewBox="0 0 16 12" fill="none" xmlns="http://www.w3.org/2000/svg">
<g clip-path="url(#clip0_270_55025)">
<rect width="16" height="12" fill="white"/>
<path fill-rule="evenodd" clip-rule="evenodd" d="M0 0H16V12H0V0Z" fill="#009933"/>
<path d="M-0.0703066 -0.520566L-1.175 -1.43242V0V12V13.4324L-0.0703066 12.5206L7.19858 6.52057L7.82924 6L7.19858 5.47943L-0.0703066 -0.520566Z" fill="#272727" stroke="#FECA00" stroke-width="1.35"/>
<path d="M16.0821 -0.530048L17.175 -1.39183V0V12V13.3918L16.0821 12.53L8.47264 6.53005L7.80041 6L8.47264 5.46995L16.0821 -0.530048Z" fill="#272727" stroke="#FECA00" stroke-width="1.35"/>
</g>
<defs>
<clipPath id="clip0_270_55025">
<rect width="16" height="12" fill="white"/>
</clipPath>
</defs>
</svg>

<svg width="16" height="12" fill="none" xmlns="http://www.w3.org/2000/svg">
  <mask id="a" maskUnits="userSpaceOnUse" x="0" y="0" width="16" height="12">
    <path fill="#fff" d="M0 0h16v12H0z"/>
  </mask>
  <g mask="url(#a)">
    <path fill-rule="evenodd" clip-rule="evenodd" d="M0 0h16v12H0V0z" fill="#093"/>
    <path d="M-.07-.52l-1.105-.912v14.864l1.105-.911 7.269-6L7.829 6l-.63-.52-7.27-6z" fill="#272727" stroke="#FECA00" stroke-width="1.35"/>
    <path d="M16.082-.53l1.093-.862v14.784l-1.093-.862-7.61-6L7.8 6l.673-.53 7.61-6z" fill="#272727" stroke="#FECA00" stroke-width="1.35"/>
  </g>
</svg>
